X: 1
T:Down Home
R:Waltz
Z: posted by Tony Ludiker 2/00
M:3/4
L:1/8
K:D
ABc|d2 c2 (3BcB|A2 G2 (3FGF|E3 FGA|B6|
A3 BGA|F3 FEG|F4 FG|F3 ABc|
d2 c2 (3BcB|A2 G2 (3FGF|E3 FGA|B6|
A3 BGA|F3 FEF|D6|A,2 D2 FA|
E3 FGB|A4 AG|F3 Ace|d4 dc|
B3 cde|f3 fed|B3 gfg|e3 ABc|
d2 c2 (3BcB|A2 G2 (3FGF|E3 FGA|B6|
A3 BGA|F3 FEF|(D6|D3)||
